assets/Heart with arrow/Flat/heart_with_arrow_flat.svg

<svg width="32" height="32" viewBox="0 0 32 32" fill="none" xmlns="http://www.w3.org/2000/svg">
<path d="M5.15492 5.15495C5.54545 4.76443 6.17861 4.76443 6.56914 5.15495L12.7291 11.315C13.1197 11.7055 13.1197 12.3386 12.7291 12.7292C12.3386 13.1197 11.7054 13.1197 11.3149 12.7292L5.15492 6.56917C4.7644 6.17864 4.7644 5.54548 5.15492 5.15495Z" fill="#FF822D"/>
<path d="M20.602 7.09204C17.962 7.55204 15.942 10.662 15.942 10.662C15.942 10.662 13.922 7.55204 11.282 7.09204C4.77203 5.95204 2.08203 11.652 3.17203 15.902C5.10203 23.462 15.942 30.072 15.942 30.072C15.942 30.072 26.772 23.462 28.712 15.902C29.802 11.652 27.112 5.95204 20.602 7.09204Z" fill="#F92F60"/>
<path d="M3.51203 7.56203L2.02203 2.71203C1.90203 2.29203 2.29203 1.90203 2.71203 2.02203L7.56203 3.51203C7.95203 3.63203 8.08203 4.13203 7.79203 4.42203L4.42203 7.78203C4.13203 8.07203 3.63203 7.95203 3.51203 7.56203Z" fill="#635994"/>
<path d="M25.942 27.032L20.942 21.912L20.922 25.062C20.922 25.632 21.142 26.172 21.532 26.582L24.372 29.492L24.392 29.512C24.662 29.782 25.032 29.942 25.442 29.942C26.272 29.942 26.942 29.272 26.942 28.442C26.942 27.792 26.522 27.242 25.942 27.032Z" fill="#635994"/>
<path d="M21.932 20.9421L27.052 25.9421C27.252 26.5221 27.802 26.9421 28.462 26.9421C29.292 26.9421 29.962 26.2721 29.962 25.4421C29.962 25.0321 29.802 24.6621 29.532 24.3921L29.512 24.3721L26.602 21.5321C26.192 21.1421 25.652 20.9221 25.082 20.9221L21.932 20.9421Z" fill="#635994"/>
<path d="M17.2549 17.2549C17.6455 16.8644 18.2786 16.8644 18.6691 17.2549L26.7291 25.3149C27.1197 25.7055 27.1197 26.3386 26.7291 26.7291C26.3386 27.1197 25.7055 27.1197 25.3149 26.7291L17.2549 18.6691C16.8644 18.2786 16.8644 17.6455 17.2549 17.2549Z" fill="#FF822D"/>
</svg>

<svg xmlns="http://www.w3.org/2000/svg" width="32" height="32" fill="none"><path fill="#FF822D" d="M5.155 5.155a1 1 0 0 1 1.414 0l6.16 6.16a1 1 0 1 1-1.414 1.414l-6.16-6.16a1 1 0 0 1 0-1.414Z"/><path fill="#F92F60" d="M20.602 7.092c-2.64.46-4.66 3.57-4.66 3.57s-2.02-3.11-4.66-3.57c-6.51-1.14-9.2 4.56-8.11 8.81 1.93 7.56 12.77 14.17 12.77 14.17s10.83-6.61 12.77-14.17c1.09-4.25-1.6-9.95-8.11-8.81Z"/><path fill="#635994" d="m3.512 7.562-1.49-4.85c-.12-.42.27-.81.69-.69l4.85 1.49c.39.12.52.62.23.91l-3.37 3.36c-.29.29-.79.17-.91-.22ZM25.942 27.032l-5-5.12-.02 3.15c0 .57.22 1.11.61 1.52l2.84 2.91.02.02c.27.27.64.43 1.05.43.83 0 1.5-.67 1.5-1.5 0-.65-.42-1.2-1-1.41ZM21.932 20.942l5.12 5a1.498 1.498 0 0 0 2.91-.5c0-.41-.16-.78-.43-1.05l-.02-.02-2.91-2.84a2.2 2.2 0 0 0-1.52-.61l-3.15.02Z"/><path fill="#FF822D" d="M17.255 17.255a1 1 0 0 1 1.414 0l8.06 8.06a1 1 0 1 1-1.414 1.414l-8.06-8.06a1 1 0 0 1 0-1.414Z"/></svg>
